; generated by PrusaSlicer 2.3.1 on 2021-05-28 at 17:00:17 UTC

; 

; external perimeters extrusion width = 0.45mm
; perimeters extrusion width = 0.45mm
; infill extrusion width = 0.45mm
; solid infill extrusion width = 0.45mm
; top infill extrusion width = 0.40mm
; support material extrusion width = 0.38mm
; first layer extrusion width = 0.42mm

M201 X500 Y500 Z100 E5000 ; sets maximum accelerations, mm/sec^2
M203 X500 Y500 Z10 E60 ; sets maximum feedrates, mm/sec
M204 P500 R1000 T500 ; sets acceleration (P, T) and retract acceleration (R), mm/sec^2
M205 X8.00 Y8.00 Z0.40 E5.00 ; sets the jerk limits, mm/sec
M205 S0 T0 ; sets the minimum extruding and travel feed rate, mm/sec
M107 ; disable fan
;TYPE:Custom
G90 ; use absolute coordinates
M83 ; extruder relative mode
M104 S120 ; set temporary nozzle temp to prevent oozing during homing and auto bed leveling
M140 S72 ; set final bed temp
G4 S10 ; allow partial nozzle warmup
G28 ; home all axis
G29 ; auto bed levelling
G1 Z50 F240
G1 X2 Y10 F3000
M104 S210 ; set final nozzle temp
M190 S72 ; wait for bed temp to stabilize
M109 S210 ; wait for nozzle temp to stabilize
G1 Z0.28 F240
G92 E0
G1 Y140 E10 F1500 ; prime the nozzle
G1 X2.3 F5000
G92 E0
G1 Y10 E10 F1200 ; prime the nozzle
G92 E0
G21 ; set units to millimeters
G90 ; use absolute coordinates
M83 ; use relative distances for extrusion
; Filament gcode
;LAYER_CHANGE
;Z:0.2
;HEIGHT:0.2
;BEFORE_LAYER_CHANGE
G92 E0
;0.2


G1 E-5.00000 F3600.000 ; retract
G1 Z0.200 F9000.000 ; move to next layer (0)
;AFTER_LAYER_CHANGE
;0.2
G1 X65.965 Y47.995 ; move to first skirt point
G1 E5.00000 F2400.000 ; unretract
M204 S500 ; adjust acceleration
;TYPE:Skirt
;WIDTH:0.42
G1 F1200.000
G1 X67.254 Y47.077 E0.04961 ; skirt
G1 X68.727 Y46.483 E0.04981 ; skirt
G1 X70.292 Y46.249 E0.04961 ; skirt
G1 X160.506 Y46.246 E2.82861 ; skirt
G1 X161.789 Y46.370 E0.04040 ; skirt
G1 X163.025 Y46.735 E0.04040 ; skirt
G1 X164.168 Y47.329 E0.04040 ; skirt
G1 X165.179 Y48.129 E0.04040 ; skirt
G1 X166.019 Y49.106 E0.04040 ; skirt
G1 X166.658 Y50.225 E0.04040 ; skirt
G1 X167.073 Y51.445 E0.04040 ; skirt
G1 X167.248 Y52.721 E0.04040 ; skirt
G1 X167.254 Y178.064 E3.93004 ; skirt
G1 X167.171 Y179.055 E0.03118 ; skirt
G1 X166.944 Y180.023 E0.03118 ; skirt
G1 X166.577 Y180.947 E0.03118 ; skirt
G1 X166.079 Y181.807 E0.03118 ; skirt
G1 X165.021 Y183.018 E0.05041 ; skirt
G1 X163.707 Y183.944 E0.05041 ; skirt
G1 X162.211 Y184.534 E0.05041 ; skirt
G1 X160.618 Y184.753 E0.05041 ; skirt
G1 X70.417 Y184.754 E2.82821 ; skirt
G1 X69.432 Y184.669 E0.03097 ; skirt
G1 X68.471 Y184.442 E0.03097 ; skirt
G1 X67.547 Y184.074 E0.03118 ; skirt
G1 X66.693 Y183.579 E0.03097 ; skirt
G1 X65.478 Y182.516 E0.05061 ; skirt
G1 X64.546 Y181.190 E0.05081 ; skirt
G1 X63.960 Y179.686 E0.05061 ; skirt
G1 X63.746 Y178.086 E0.05061 ; skirt
G1 X63.746 Y52.936 E3.92400 ; skirt
G1 X63.829 Y51.945 E0.03118 ; skirt
G1 X64.056 Y50.977 E0.03118 ; skirt
G1 X64.423 Y50.053 E0.03118 ; skirt
G1 X64.921 Y49.193 E0.03118 ; skirt
G1 X65.926 Y48.040 E0.04793 ; skirt
G1 X66.208 Y48.287 F9000.000 ; move to first skirt point
G1 F1200.000
G1 X67.445 Y47.402 E0.04769 ; skirt
G1 X68.837 Y46.843 E0.04703 ; skirt
G1 X70.315 Y46.626 E0.04684 ; skirt
G1 X160.506 Y46.623 E2.82787 ; skirt
G1 X161.715 Y46.740 E0.03809 ; skirt
G1 X162.886 Y47.086 E0.03828 ; skirt
G1 X163.969 Y47.649 E0.03828 ; skirt
G1 X164.921 Y48.404 E0.03809 ; skirt
G1 X165.716 Y49.331 E0.03828 ; skirt
G1 X166.320 Y50.392 E0.03828 ; skirt
G1 X166.710 Y51.549 E0.03828 ; skirt
G1 X166.872 Y52.753 E0.03809 ; skirt
G1 X166.877 Y178.056 E3.92879 ; skirt
G1 X166.799 Y178.994 E0.02951 ; skirt
G1 X166.584 Y179.910 E0.02951 ; skirt
G1 X166.237 Y180.785 E0.02951 ; skirt
G1 X165.761 Y181.604 E0.02971 ; skirt
G1 X164.764 Y182.742 E0.04742 ; skirt
G1 X163.522 Y183.616 E0.04762 ; skirt
G1 X162.108 Y184.171 E0.04762 ; skirt
G1 X160.610 Y184.376 E0.04742 ; skirt
G1 X70.425 Y184.377 E2.82768 ; skirt
G1 X69.494 Y184.297 E0.02932 ; skirt
G1 X68.578 Y184.080 E0.02951 ; skirt
G1 X67.709 Y183.734 E0.02932 ; skirt
G1 X66.896 Y183.261 E0.02951 ; skirt
G1 X65.750 Y182.255 E0.04781 ; skirt
G1 X64.876 Y181.005 E0.04781 ; skirt
G1 X64.324 Y179.590 E0.04762 ; skirt
G1 X64.123 Y178.079 E0.04781 ; skirt
G1 X64.123 Y52.944 E3.92351 ; skirt
G1 X64.201 Y52.006 E0.02951 ; skirt
G1 X64.416 Y51.090 E0.02951 ; skirt
G1 X64.763 Y50.215 E0.02951 ; skirt
G1 X65.239 Y49.396 E0.02971 ; skirt
G1 X66.169 Y48.333 E0.04428 ; skirt
G1 X67.932 Y49.004 F9000.000 ; move to first brim point
G1 F1200.000
G1 X68.767 Y48.585 E0.02931 ; brim
G1 X69.990 Y48.287 E0.03948 ; brim
G1 X160.986 Y48.290 E2.85311 ; brim
G1 X161.935 Y48.474 E0.03029 ; brim
G1 X162.843 Y48.865 E0.03101 ; brim
G1 X164.062 Y49.888 E0.04990 ; brim
G1 X164.853 Y51.106 E0.04551 ; brim
G1 X165.213 Y52.489 E0.04481 ; brim
G1 X165.213 Y178.510 E3.95130 ; brim
G1 X164.915 Y179.733 E0.03948 ; brim
G1 X164.496 Y180.568 E0.02931 ; brim
G1 X163.068 Y181.996 E0.06329 ; brim
G1 X162.233 Y182.415 E0.02931 ; brim
G1 X161.010 Y182.713 E0.03948 ; brim
G1 X69.990 Y182.713 E2.85384 ; brim
G1 X68.767 Y182.415 E0.03948 ; brim
G1 X67.932 Y181.996 E0.02931 ; brim
G1 X66.504 Y180.568 E0.06329 ; brim
G1 X66.085 Y179.733 E0.02931 ; brim
G1 X65.787 Y178.510 E0.03948 ; brim
G1 X65.787 Y52.490 E3.95124 ; brim
G1 X66.085 Y51.267 E0.03948 ; brim
G1 X66.504 Y50.432 E0.02931 ; brim
G1 X67.889 Y49.047 E0.06141 ; brim
G1 X68.129 Y49.327 F9000.000 ; move to first brim point
G1 F1200.000
G1 X68.880 Y48.945 E0.02639 ; brim
G1 X70.014 Y48.664 E0.03664 ; brim
G1 X160.967 Y48.667 E2.85179 ; brim
G1 X161.841 Y48.840 E0.02791 ; brim
G1 X162.666 Y49.199 E0.02823 ; brim
G1 X163.797 Y50.158 E0.04647 ; brim
G1 X164.496 Y51.232 E0.04018 ; brim
G1 X164.836 Y52.513 E0.04157 ; brim
G1 X164.836 Y178.486 E3.94979 ; brim
G1 X164.555 Y179.620 E0.03664 ; brim
G1 X164.173 Y180.371 E0.02639 ; brim
G1 X162.871 Y181.673 E0.05777 ; brim
G1 X162.120 Y182.055 E0.02639 ; brim
G1 X160.986 Y182.336 E0.03664 ; brim
G1 X70.014 Y182.336 E2.85238 ; brim
G1 X68.880 Y182.055 E0.03664 ; brim
G1 X68.129 Y181.673 E0.02639 ; brim
G1 X66.827 Y180.371 E0.05777 ; brim
G1 X66.445 Y179.620 E0.02639 ; brim
G1 X66.164 Y178.486 E0.03664 ; brim
G1 X66.164 Y52.514 E3.94978 ; brim
G1 X66.445 Y51.380 E0.03664 ; brim
G1 X66.827 Y50.629 E0.02639 ; brim
G1 X68.087 Y49.369 E0.05589 ; brim
G1 X68.328 Y49.648 F9000.000 ; move to first brim point
G1 F1200.000
G1 X68.994 Y49.305 E0.02348 ; brim
G1 X70.038 Y49.041 E0.03376 ; brim
G1 X160.948 Y49.044 E2.85044 ; brim
G1 X161.746 Y49.205 E0.02550 ; brim
G1 X162.488 Y49.533 E0.02545 ; brim
G1 X163.530 Y50.426 E0.04302 ; brim
G1 X164.163 Y51.410 E0.03669 ; brim
G1 X164.459 Y52.538 E0.03655 ; brim
G1 X164.459 Y178.462 E3.94828 ; brim
G1 X164.195 Y179.506 E0.03376 ; brim
G1 X163.852 Y180.172 E0.02348 ; brim
G1 X162.672 Y181.352 E0.05234 ; brim
G1 X162.006 Y181.695 E0.02348 ; brim
G1 X160.962 Y181.959 E0.03376 ; brim
G1 X70.038 Y181.959 E2.85088 ; brim
G1 X68.994 Y181.695 E0.03376 ; brim
G1 X68.328 Y181.352 E0.02348 ; brim
G1 X67.148 Y180.172 E0.05234 ; brim
G1 X66.805 Y179.506 E0.02348 ; brim
G1 X66.541 Y178.462 E0.03376 ; brim
G1 X66.541 Y52.538 E3.94828 ; brim
G1 X66.805 Y51.494 E0.03376 ; brim
G1 X67.148 Y50.828 E0.02348 ; brim
G1 X68.286 Y49.690 E0.05045 ; brim
G1 X68.529 Y49.969 F9000.000 ; move to first brim point
G1 F1200.000
G1 X69.111 Y49.665 E0.02058 ; brim
G1 X70.062 Y49.418 E0.03083 ; brim
G1 X160.929 Y49.421 E2.84905 ; brim
G1 X161.648 Y49.570 E0.02304 ; brim
G1 X162.308 Y49.865 E0.02266 ; brim
G1 X163.262 Y50.692 E0.03960 ; brim
G1 X163.806 Y51.537 E0.03149 ; brim
G1 X164.082 Y52.563 E0.03331 ; brim
G1 X164.082 Y178.438 E3.94672 ; brim
G1 X163.835 Y179.389 E0.03083 ; brim
G1 X163.531 Y179.971 E0.02058 ; brim
G1 X162.471 Y181.031 E0.04702 ; brim
G1 X161.889 Y181.335 E0.02058 ; brim
G1 X160.938 Y181.582 E0.03083 ; brim
G1 X70.062 Y181.582 E2.84934 ; brim
G1 X69.111 Y181.335 E0.03083 ; brim
G1 X68.529 Y181.031 E0.02058 ; brim
G1 X67.469 Y179.971 E0.04702 ; brim
G1 X67.165 Y179.389 E0.02058 ; brim
G1 X66.918 Y178.438 E0.03083 ; brim
G1 X66.918 Y52.562 E3.94674 ; brim
G1 X67.165 Y51.611 E0.03083 ; brim
G1 X67.469 Y51.029 E0.02058 ; brim
G1 X68.486 Y50.011 E0.04513 ; brim
G1 X68.731 Y50.288 F9000.000 ; move to first brim point
G1 F1200.000
G1 X69.229 Y50.023 E0.01770 ; brim
G1 X70.087 Y49.795 E0.02783 ; brim
G1 X160.910 Y49.798 E2.84767 ; brim
G1 X161.513 Y49.923 E0.01933 ; brim
G1 X162.128 Y50.197 E0.02110 ; brim
G1 X162.992 Y50.957 E0.03609 ; brim
G1 X163.472 Y51.714 E0.02809 ; brim
G1 X163.705 Y52.587 E0.02835 ; brim
G1 X163.705 Y178.413 E3.94517 ; brim
G1 X163.477 Y179.271 E0.02783 ; brim
G1 X163.212 Y179.769 E0.01770 ; brim
G1 X162.269 Y180.712 E0.04182 ; brim
G1 X161.771 Y180.977 E0.01770 ; brim
G1 X160.913 Y181.205 E0.02783 ; brim
G1 X70.087 Y181.205 E2.84777 ; brim
G1 X69.229 Y180.977 E0.02783 ; brim
G1 X68.731 Y180.712 E0.01770 ; brim
G1 X67.788 Y179.769 E0.04182 ; brim
G1 X67.523 Y179.271 E0.01770 ; brim
G1 X67.295 Y178.413 E0.02783 ; brim
G1 X67.295 Y52.587 E3.94517 ; brim
G1 X67.523 Y51.729 E0.02783 ; brim
G1 X67.788 Y51.231 E0.01770 ; brim
G1 X68.689 Y50.330 E0.03994 ; brim
G1 X68.935 Y50.606 F9000.000 ; move to first brim point
G1 F1200.000
G1 X69.351 Y50.380 E0.01483 ; brim
G1 X70.113 Y50.172 E0.02477 ; brim
G1 X160.889 Y50.176 E2.84622 ; brim
G1 X161.414 Y50.287 E0.01681 ; brim
G1 X161.945 Y50.528 E0.01829 ; brim
G1 X162.722 Y51.221 E0.03263 ; brim
G1 X163.116 Y51.841 E0.02306 ; brim
G1 X163.328 Y52.613 E0.02510 ; brim
G1 X163.328 Y178.387 E3.94354 ; brim
G1 X163.120 Y179.149 E0.02477 ; brim
G1 X162.894 Y179.565 E0.01483 ; brim
G1 X162.065 Y180.394 E0.03678 ; brim
G1 X161.649 Y180.620 E0.01483 ; brim
G1 X160.887 Y180.828 E0.02477 ; brim
G1 X70.113 Y180.828 E2.84614 ; brim
G1 X69.351 Y180.620 E0.02477 ; brim
G1 X68.935 Y180.394 E0.01483 ; brim
G1 X68.106 Y179.565 E0.03678 ; brim
G1 X67.880 Y179.149 E0.01483 ; brim
G1 X67.672 Y178.387 E0.02477 ; brim
G1 X67.672 Y52.613 E3.94354 ; brim
G1 X67.880 Y51.851 E0.02477 ; brim
G1 X68.106 Y51.435 E0.01483 ; brim
G1 X68.893 Y50.648 E0.03490 ; brim
G1 X69.142 Y50.922 F9000.000 ; move to first brim point
G1 F1200.000
G1 X69.476 Y50.737 E0.01200 ; brim
G1 X70.140 Y50.549 E0.02163 ; brim
G1 X160.868 Y50.553 E2.84471 ; brim
G1 X161.311 Y50.650 E0.01424 ; brim
G1 X161.759 Y50.858 E0.01548 ; brim
G1 X162.450 Y51.483 E0.02920 ; brim
G1 X162.762 Y51.971 E0.01818 ; brim
G1 X162.951 Y52.640 E0.02179 ; brim
G1 X162.951 Y178.360 E3.94186 ; brim
G1 X162.763 Y179.024 E0.02162 ; brim
G1 X162.578 Y179.358 E0.01200 ; brim
G1 X161.858 Y180.078 E0.03191 ; brim
G1 X161.524 Y180.263 E0.01200 ; brim
G1 X160.860 Y180.451 E0.02162 ; brim
G1 X70.140 Y180.451 E2.84446 ; brim
G1 X69.476 Y180.263 E0.02162 ; brim
G1 X69.142 Y180.078 E0.01200 ; brim
G1 X68.422 Y179.358 E0.03191 ; brim
G1 X68.237 Y179.024 E0.01200 ; brim
G1 X68.049 Y178.360 E0.02162 ; brim
G1 X68.049 Y52.640 E3.94186 ; brim
G1 X68.237 Y51.976 E0.02162 ; brim
G1 X68.422 Y51.642 E0.01200 ; brim
G1 X69.099 Y50.965 E0.03003 ; brim
G1 X70.168 Y50.926 F9000.000 ; move to first brim point
G1 F1200.000
G1 X160.846 Y50.930 E2.84313 ; brim
G1 X161.205 Y51.013 E0.01157 ; brim
G1 X161.571 Y51.185 E0.01268 ; brim
G1 X162.176 Y51.743 E0.02580 ; brim
G1 X162.408 Y52.105 E0.01347 ; brim
G1 X162.574 Y52.668 E0.01841 ; brim
G1 X162.574 Y178.332 E3.94010 ; brim
G1 X162.409 Y178.894 E0.01838 ; brim
G1 X162.263 Y179.149 E0.00919 ; brim
G1 X161.649 Y179.763 E0.02726 ; brim
G1 X161.394 Y179.909 E0.00919 ; brim
G1 X160.832 Y180.074 E0.01838 ; brim
G1 X70.168 Y180.074 E2.84270 ; brim
G1 X69.606 Y179.909 E0.01838 ; brim
G1 X69.351 Y179.763 E0.00919 ; brim
G1 X68.737 Y179.149 E0.02726 ; brim
G1 X68.591 Y178.894 E0.00919 ; brim
G1 X68.426 Y178.332 E0.01838 ; brim
G1 X68.426 Y52.668 E3.94010 ; brim
G1 X68.591 Y52.106 E0.01838 ; brim
G1 X68.737 Y51.851 E0.00919 ; brim
G1 X69.351 Y51.237 E0.02726 ; brim
G1 X69.606 Y51.091 E0.00919 ; brim
G1 X70.111 Y50.943 E0.01650 ; brim
G1 X70.198 Y51.303 F9000.000 ; move to first brim point
G1 F1200.000
G1 X160.824 Y51.307 E2.84152 ; brim
G1 X161.062 Y51.362 E0.00767 ; brim
G1 X161.382 Y51.513 E0.01109 ; brim
G1 X161.901 Y52.001 E0.02233 ; brim
G1 X162.056 Y52.242 E0.00898 ; brim
G1 X162.197 Y52.698 E0.01495 ; brim
G1 X162.197 Y178.302 E3.93825 ; brim
G1 X162.056 Y178.759 E0.01500 ; brim
G1 X161.952 Y178.936 E0.00641 ; brim
G1 X161.436 Y179.452 E0.02289 ; brim
G1 X161.259 Y179.556 E0.00641 ; brim
G1 X160.802 Y179.697 E0.01500 ; brim
G1 X70.198 Y179.697 E2.84085 ; brim
G1 X69.741 Y179.556 E0.01500 ; brim
G1 X69.564 Y179.452 E0.00641 ; brim
G1 X69.048 Y178.936 E0.02289 ; brim
G1 X68.944 Y178.759 E0.00641 ; brim
G1 X68.803 Y178.302 E0.01500 ; brim
G1 X68.803 Y52.698 E3.93825 ; brim
G1 X68.944 Y52.241 E0.01500 ; brim
G1 X69.048 Y52.064 E0.00641 ; brim
G1 X69.564 Y51.548 E0.02289 ; brim
G1 X69.741 Y51.444 E0.00641 ; brim
G1 X70.140 Y51.321 E0.01312 ; brim
G1 X69.883 Y51.794 F9000.000 ; move to first brim point
G1 F1200.000
G1 X70.229 Y51.680 E0.01144 ; brim
G1 X160.802 Y51.684 E2.83984 ; brim
G1 X160.919 Y51.711 E0.00377 ; brim
G1 X161.192 Y51.840 E0.00947 ; brim
G1 X161.623 Y52.257 E0.01880 ; brim
G1 X161.707 Y52.385 E0.00479 ; brim
G1 X161.820 Y52.729 E0.01136 ; brim
G1 X161.820 Y178.271 E3.93626 ; brim
G1 X161.706 Y178.617 E0.01144 ; brim
G1 X161.644 Y178.717 E0.00369 ; brim
G1 X161.217 Y179.144 E0.01893 ; brim
G1 X161.117 Y179.206 E0.00369 ; brim
G1 X160.771 Y179.320 E0.01144 ; brim
G1 X70.229 Y179.320 E2.83886 ; brim
G1 X69.883 Y179.206 E0.01144 ; brim
G1 X69.783 Y179.144 E0.00369 ; brim
G1 X69.356 Y178.717 E0.01893 ; brim
G1 X69.294 Y178.617 E0.00369 ; brim
G1 X69.180 Y178.271 E0.01144 ; brim
G1 X69.180 Y52.729 E3.93626 ; brim
G1 X69.294 Y52.383 E0.01144 ; brim
G1 X69.356 Y52.283 E0.00369 ; brim
G1 X69.832 Y51.826 E0.02069 ; brim
G1 X70.037 Y52.139 F9000.000 ; move to first brim point
G1 F1200.000
G1 X70.264 Y52.057 E0.00757 ; brim
G1 X160.750 Y52.057 E2.83710 ; brim
G1 X161.000 Y52.167 E0.00856 ; brim
G1 X161.343 Y52.510 E0.01522 ; brim
G1 X161.443 Y52.764 E0.00856 ; brim
G1 X161.443 Y178.236 E3.93406 ; brim
G1 X161.343 Y178.490 E0.00856 ; brim
G1 X160.990 Y178.843 E0.01566 ; brim
G1 X160.736 Y178.943 E0.00856 ; brim
G1 X70.264 Y178.943 E2.83666 ; brim
G1 X70.010 Y178.843 E0.00856 ; brim
G1 X69.657 Y178.490 E0.01566 ; brim
G1 X69.557 Y178.236 E0.00856 ; brim
G1 X69.557 Y52.764 E3.93406 ; brim
G1 X69.657 Y52.510 E0.00856 ; brim
G1 X69.991 Y52.176 E0.01480 ; brim
G1 X70.237 Y52.463 F9000.000 ; move to first brim point
G1 F1200.000
G1 X70.306 Y52.434 E0.00235 ; brim
G1 X160.694 Y52.434 E2.83403 ; brim
G1 X160.763 Y52.463 E0.00235 ; brim
G1 X161.037 Y52.737 E0.01215 ; brim
G1 X161.066 Y52.806 E0.00235 ; brim
G1 X161.066 Y178.194 E3.93143 ; brim
G1 X161.037 Y178.263 E0.00235 ; brim
G1 X160.763 Y178.537 E0.01215 ; brim
G1 X160.694 Y178.566 E0.00235 ; brim
G1 X70.306 Y178.566 E2.83403 ; brim
G1 X70.237 Y178.537 E0.00235 ; brim
G1 X69.963 Y178.263 E0.01215 ; brim
G1 X69.934 Y178.194 E0.00235 ; brim
G1 X69.934 Y52.806 E3.93143 ; brim
G1 X69.963 Y52.737 E0.00235 ; brim
G1 X70.195 Y52.506 E0.01027 ; brim
G1 X70.422 Y52.811 F9000.000 ; move to first brim point
G1 F1200.000
G1 X160.578 Y52.811 E2.82678 ; brim
G1 X160.689 Y52.922 E0.00490 ; brim
G1 X160.689 Y178.078 E3.92418 ; brim
G1 X160.578 Y178.189 E0.00490 ; brim
G1 X70.422 Y178.189 E2.82678 ; brim
G1 X70.311 Y178.078 E0.00490 ; brim
G1 X70.311 Y52.922 E3.92418 ; brim
G1 X70.379 Y52.854 E0.00302 ; brim
; printing object OctoCase.stl id:0 copy 0
G1 X70.810 Y53.310 F9000.000 ; move to first perimeter point
;TYPE:External perimeter
G1 F1200.000
G1 X160.190 Y53.310 E2.80245 ; perimeter
G1 X160.190 Y177.690 E3.89985 ; perimeter
G1 X70.810 Y177.690 E2.80245 ; perimeter
G1 X70.810 Y53.370 E3.89797 ; perimeter
G1 X71.190 Y53.434 F9000.000 ; move inwards before travel
G1 X71.187 Y53.687 ; move to first perimeter point
;TYPE:Perimeter
G1 F1200.000
G1 X159.813 Y53.687 E2.77880 ; perimeter
G1 X159.813 Y177.313 E3.87620 ; perimeter
G1 X71.187 Y177.313 E2.77880 ; perimeter
G1 X71.187 Y53.747 E3.87432 ; perimeter
