; generated by PrusaSlicer 2.3.1 on 2021-05-28 at 18:58:59 UTC

; 

; external perimeters extrusion width = 0.45mm
; perimeters extrusion width = 0.45mm
; infill extrusion width = 0.45mm
; solid infill extrusion width = 0.45mm
; top infill extrusion width = 0.40mm
; support material extrusion width = 0.38mm
; first layer extrusion width = 0.42mm

M201 X500 Y500 Z100 E5000 ; sets maximum accelerations, mm/sec^2
M203 X500 Y500 Z10 E60 ; sets maximum feedrates, mm/sec
M204 P500 R1000 T500 ; sets acceleration (P, T) and retract acceleration (R), mm/sec^2
M205 X8.00 Y8.00 Z0.40 E5.00 ; sets the jerk limits, mm/sec
M205 S0 T0 ; sets the minimum extruding and travel feed rate, mm/sec
M107 ; disable fan
;TYPE:Custom
G90 ; use absolute coordinates
M83 ; extruder relative mode
M104 S120 ; set temporary nozzle temp to prevent oozing during homing and auto bed leveling
M140 S72 ; set final bed temp
G4 S10 ; allow partial nozzle warmup
G28 ; home all axis
G29 ; auto bed levelling
G1 Z50 F240
G1 X2 Y10 F3000
M104 S210 ; set final nozzle temp
M190 S72 ; wait for bed temp to stabilize
M109 S210 ; wait for nozzle temp to stabilize
G1 Z0.28 F240
G92 E0
G1 Y140 E10 F1500 ; prime the nozzle
G1 X2.3 F5000
G92 E0
G1 Y10 E10 F1200 ; prime the nozzle
G92 E0
G21 ; set units to millimeters
G90 ; use absolute coordinates
M83 ; use relative distances for extrusion
; Filament gcode
;LAYER_CHANGE
;Z:0.2
;HEIGHT:0.2
;BEFORE_LAYER_CHANGE
G92 E0
;0.2


G1 E-5.00000 F3600.000 ; retract
G1 Z0.200 F9000.000 ; move to next layer (0)
;AFTER_LAYER_CHANGE
;0.2
G1 X72.597 Y48.947 ; move to first skirt point
G1 E5.00000 F2400.000 ; unretract
M204 S500 ; adjust acceleration
;TYPE:Skirt
;WIDTH:0.42
G1 F1200.000
G1 X73.151 Y48.298 E0.02676 ; skirt
G1 X73.783 Y47.724 E0.02676 ; skirt
G1 X74.482 Y47.235 E0.02676 ; skirt
G1 X75.237 Y46.837 E0.02676 ; skirt
G1 X76.036 Y46.538 E0.02676 ; skirt
G1 X76.866 Y46.342 E0.02676 ; skirt
G1 X77.715 Y46.252 E0.02676 ; skirt
G1 X153.006 Y46.246 E2.36071 ; skirt
G1 X154.289 Y46.370 E0.04040 ; skirt
G1 X155.525 Y46.735 E0.04040 ; skirt
G1 X156.663 Y47.325 E0.04020 ; skirt
G1 X157.674 Y48.124 E0.04040 ; skirt
G1 X158.511 Y49.096 E0.04020 ; skirt
G1 X159.152 Y50.213 E0.04040 ; skirt
G1 X159.570 Y51.432 E0.04040 ; skirt
G1 X159.748 Y52.709 E0.04040 ; skirt
G1 X159.754 Y178.045 E3.92983 ; skirt
G1 X159.693 Y178.909 E0.02716 ; skirt
G1 X159.523 Y179.752 E0.02696 ; skirt
G1 X159.248 Y180.566 E0.02696 ; skirt
G1 X158.871 Y181.339 E0.02696 ; skirt
G1 X158.395 Y182.063 E0.02716 ; skirt
G1 X157.835 Y182.716 E0.02696 ; skirt
G1 X157.192 Y183.296 E0.02716 ; skirt
G1 X156.480 Y183.789 E0.02716 ; skirt
G1 X155.716 Y184.184 E0.02696 ; skirt
G1 X154.903 Y184.481 E0.02716 ; skirt
G1 X154.064 Y184.670 E0.02696 ; skirt
G1 X153.202 Y184.751 E0.02716 ; skirt
G1 X77.923 Y184.754 E2.36031 ; skirt
G1 X77.072 Y184.690 E0.02676 ; skirt
G1 X76.236 Y184.520 E0.02676 ; skirt
G1 X75.428 Y184.245 E0.02676 ; skirt
G1 X74.661 Y183.871 E0.02676 ; skirt
G1 X73.932 Y183.391 E0.02736 ; skirt
G1 X73.271 Y182.822 E0.02736 ; skirt
G1 X72.688 Y182.172 E0.02736 ; skirt
G1 X72.195 Y181.452 E0.02736 ; skirt
G1 X71.798 Y180.675 E0.02736 ; skirt
G1 X71.505 Y179.853 E0.02736 ; skirt
G1 X71.320 Y179.000 E0.02736 ; skirt
G1 X71.247 Y178.131 E0.02736 ; skirt
G1 X71.246 Y52.955 E3.92480 ; skirt
G1 X71.307 Y52.091 E0.02716 ; skirt
G1 X71.477 Y51.248 E0.02696 ; skirt
G1 X71.752 Y50.434 E0.02696 ; skirt
G1 X72.129 Y49.661 E0.02696 ; skirt
G1 X72.564 Y48.997 E0.02488 ; skirt
G1 X72.879 Y49.204 F9000.000 ; move to first skirt point
G1 F1200.000
G1 X73.430 Y48.552 E0.02678 ; skirt
G1 X74.031 Y48.008 E0.02541 ; skirt
G1 X74.691 Y47.549 E0.02522 ; skirt
G1 X75.404 Y47.175 E0.02522 ; skirt
G1 X76.163 Y46.893 E0.02541 ; skirt
G1 X76.947 Y46.711 E0.02522 ; skirt
G1 X77.747 Y46.628 E0.02522 ; skirt
G1 X153.006 Y46.623 E2.35971 ; skirt
G1 X154.215 Y46.740 E0.03809 ; skirt
G1 X155.380 Y47.084 E0.03809 ; skirt
G1 X156.459 Y47.642 E0.03809 ; skirt
G1 X157.417 Y48.400 E0.03828 ; skirt
G1 X158.209 Y49.321 E0.03809 ; skirt
G1 X158.814 Y50.381 E0.03828 ; skirt
G1 X159.206 Y51.531 E0.03809 ; skirt
G1 X159.372 Y52.740 E0.03828 ; skirt
G1 X159.377 Y178.044 E3.92879 ; skirt
G1 X159.319 Y178.858 E0.02561 ; skirt
G1 X159.158 Y179.659 E0.02561 ; skirt
G1 X158.895 Y180.432 E0.02561 ; skirt
G1 X158.539 Y181.160 E0.02541 ; skirt
G1 X158.093 Y181.837 E0.02541 ; skirt
G1 X157.561 Y182.457 E0.02561 ; skirt
G1 X156.954 Y183.003 E0.02561 ; skirt
G1 X156.282 Y183.468 E0.02561 ; skirt
G1 X155.556 Y183.842 E0.02561 ; skirt
G1 X154.789 Y184.121 E0.02561 ; skirt
G1 X153.998 Y184.299 E0.02541 ; skirt
G1 X153.185 Y184.374 E0.02561 ; skirt
G1 X77.931 Y184.377 E2.35952 ; skirt
G1 X77.123 Y184.317 E0.02541 ; skirt
G1 X76.335 Y184.156 E0.02522 ; skirt
G1 X75.568 Y183.895 E0.02541 ; skirt
G1 X74.840 Y183.539 E0.02541 ; skirt
G1 X74.153 Y183.086 E0.02580 ; skirt
G1 X73.525 Y182.544 E0.02600 ; skirt
G1 X72.977 Y181.929 E0.02580 ; skirt
G1 X72.513 Y181.250 E0.02580 ; skirt
G1 X72.140 Y180.516 E0.02580 ; skirt
G1 X71.865 Y179.741 E0.02580 ; skirt
G1 X71.691 Y178.930 E0.02600 ; skirt
G1 X71.624 Y178.110 E0.02580 ; skirt
G1 X71.623 Y52.956 E3.92410 ; skirt
G1 X71.681 Y52.142 E0.02561 ; skirt
G1 X71.842 Y51.341 E0.02561 ; skirt
G1 X72.105 Y50.568 E0.02561 ; skirt
G1 X72.461 Y49.840 E0.02541 ; skirt
G1 X72.846 Y49.254 E0.02196 ; skirt
G1 X73.935 Y50.530 F9000.000 ; move to first brim point
G1 F1200.000
G1 X74.439 Y49.892 E0.02550 ; brim
G1 X75.451 Y48.994 E0.04242 ; brim
G1 X76.267 Y48.585 E0.02862 ; brim
G1 X77.491 Y48.287 E0.03948 ; brim
G1 X153.486 Y48.290 E2.38279 ; brim
G1 X154.435 Y48.474 E0.03029 ; brim
G1 X155.343 Y48.865 E0.03101 ; brim
G1 X156.562 Y49.888 E0.04990 ; brim
G1 X157.353 Y51.106 E0.04551 ; brim
G1 X157.713 Y52.489 E0.04481 ; brim
G1 X157.713 Y178.547 E3.95247 ; brim
G1 X157.065 Y180.470 E0.06363 ; brim
G1 X156.561 Y181.108 E0.02550 ; brim
G1 X155.549 Y182.006 E0.04242 ; brim
G1 X154.733 Y182.415 E0.02862 ; brim
G1 X153.510 Y182.713 E0.03947 ; brim
G1 X77.453 Y182.713 E2.38470 ; brim
G1 X75.530 Y182.065 E0.06363 ; brim
G1 X74.892 Y181.561 E0.02550 ; brim
G1 X73.994 Y180.549 E0.04242 ; brim
G1 X73.585 Y179.733 E0.02862 ; brim
G1 X73.287 Y178.510 E0.03947 ; brim
G1 X73.287 Y52.453 E3.95241 ; brim
G1 X73.916 Y50.587 E0.06175 ; brim
G1 X74.252 Y50.737 F9000.000 ; move to first brim point
G1 F1200.000
G1 X74.704 Y50.161 E0.02295 ; brim
G1 X75.644 Y49.318 E0.03960 ; brim
G1 X76.380 Y48.945 E0.02585 ; brim
G1 X77.514 Y48.664 E0.03664 ; brim
G1 X153.468 Y48.667 E2.38147 ; brim
G1 X154.341 Y48.840 E0.02791 ; brim
G1 X155.166 Y49.199 E0.02823 ; brim
G1 X156.297 Y50.158 E0.04647 ; brim
G1 X156.996 Y51.232 E0.04018 ; brim
G1 X157.336 Y52.513 E0.04157 ; brim
G1 X157.336 Y178.516 E3.95073 ; brim
G1 X156.748 Y180.263 E0.05778 ; brim
G1 X156.296 Y180.839 E0.02295 ; brim
G1 X155.356 Y181.682 E0.03960 ; brim
G1 X154.620 Y182.055 E0.02585 ; brim
G1 X153.486 Y182.336 E0.03664 ; brim
G1 X77.484 Y182.336 E2.38300 ; brim
G1 X75.737 Y181.748 E0.05778 ; brim
G1 X75.161 Y181.296 E0.02295 ; brim
G1 X74.318 Y180.356 E0.03960 ; brim
G1 X73.945 Y179.620 E0.02585 ; brim
G1 X73.664 Y178.486 E0.03664 ; brim
G1 X73.664 Y52.484 E3.95072 ; brim
G1 X74.233 Y50.794 E0.05590 ; brim
G1 X74.569 Y50.943 F9000.000 ; move to first brim point
G1 F1200.000
G1 X74.970 Y50.429 E0.02043 ; brim
G1 X75.840 Y49.642 E0.03679 ; brim
G1 X76.494 Y49.305 E0.02308 ; brim
G1 X77.538 Y49.041 E0.03376 ; brim
G1 X153.448 Y49.044 E2.38012 ; brim
G1 X154.246 Y49.205 E0.02550 ; brim
G1 X154.988 Y49.533 E0.02545 ; brim
G1 X156.030 Y50.426 E0.04302 ; brim
G1 X156.663 Y51.410 E0.03669 ; brim
G1 X156.959 Y52.538 E0.03655 ; brim
G1 X156.959 Y178.486 E3.94901 ; brim
G1 X156.431 Y180.057 E0.05197 ; brim
G1 X156.030 Y180.571 E0.02043 ; brim
G1 X155.160 Y181.358 E0.03679 ; brim
G1 X154.506 Y181.695 E0.02308 ; brim
G1 X153.462 Y181.959 E0.03376 ; brim
G1 X77.514 Y181.959 E2.38129 ; brim
G1 X75.943 Y181.431 E0.05197 ; brim
G1 X75.429 Y181.030 E0.02043 ; brim
G1 X74.642 Y180.160 E0.03679 ; brim
G1 X74.305 Y179.506 E0.02308 ; brim
G1 X74.041 Y178.462 E0.03376 ; brim
G1 X74.041 Y52.514 E3.94901 ; brim
G1 X74.550 Y51.000 E0.05009 ; brim
G1 X74.887 Y51.149 F9000.000 ; move to first brim point
G1 F1200.000
G1 X75.237 Y50.696 E0.01793 ; brim
G1 X76.037 Y49.964 E0.03399 ; brim
G1 X76.611 Y49.665 E0.02030 ; brim
G1 X77.562 Y49.418 E0.03083 ; brim
G1 X153.429 Y49.421 E2.37874 ; brim
G1 X154.148 Y49.570 E0.02304 ; brim
G1 X154.808 Y49.865 E0.02266 ; brim
G1 X155.762 Y50.692 E0.03960 ; brim
G1 X156.306 Y51.537 E0.03149 ; brim
G1 X156.582 Y52.563 E0.03331 ; brim
G1 X156.582 Y178.455 E3.94726 ; brim
G1 X156.113 Y179.851 E0.04619 ; brim
G1 X155.763 Y180.304 E0.01793 ; brim
G1 X154.963 Y181.036 E0.03399 ; brim
G1 X154.389 Y181.335 E0.02030 ; brim
G1 X153.438 Y181.582 E0.03082 ; brim
G1 X77.545 Y181.582 E2.37957 ; brim
G1 X76.149 Y181.113 E0.04619 ; brim
G1 X75.696 Y180.763 E0.01793 ; brim
G1 X74.964 Y179.963 E0.03399 ; brim
G1 X74.665 Y179.389 E0.02030 ; brim
G1 X74.418 Y178.438 E0.03082 ; brim
G1 X74.418 Y52.545 E3.94728 ; brim
G1 X74.868 Y51.206 E0.04431 ; brim
G1 X75.206 Y51.353 F9000.000 ; move to first brim point
G1 F1200.000
G1 X75.505 Y50.961 E0.01546 ; brim
G1 X76.236 Y50.285 E0.03121 ; brim
G1 X76.729 Y50.023 E0.01752 ; brim
G1 X77.587 Y49.795 E0.02783 ; brim
G1 X153.410 Y49.798 E2.37735 ; brim
G1 X154.013 Y49.923 E0.01933 ; brim
G1 X154.628 Y50.197 E0.02110 ; brim
G1 X155.492 Y50.957 E0.03609 ; brim
G1 X155.972 Y51.714 E0.02809 ; brim
G1 X156.205 Y52.587 E0.02835 ; brim
G1 X156.205 Y178.424 E3.94553 ; brim
G1 X155.794 Y179.647 E0.04045 ; brim
G1 X155.495 Y180.039 E0.01546 ; brim
G1 X154.764 Y180.715 E0.03121 ; brim
G1 X154.271 Y180.977 E0.01752 ; brim
G1 X153.413 Y181.205 E0.02783 ; brim
G1 X77.576 Y181.205 E2.37782 ; brim
G1 X76.353 Y180.794 E0.04045 ; brim
G1 X75.961 Y180.495 E0.01546 ; brim
G1 X75.285 Y179.764 E0.03121 ; brim
G1 X75.023 Y179.271 E0.01752 ; brim
G1 X74.795 Y178.413 E0.02783 ; brim
G1 X74.795 Y52.576 E3.94553 ; brim
G1 X75.187 Y51.410 E0.03857 ; brim
G1 X75.525 Y51.555 F9000.000 ; move to first brim point
G1 F1200.000
G1 X75.775 Y51.225 E0.01301 ; brim
G1 X76.438 Y50.604 E0.02845 ; brim
G1 X76.851 Y50.380 E0.01474 ; brim
G1 X77.613 Y50.172 E0.02477 ; brim
G1 X153.389 Y50.176 E2.37590 ; brim
G1 X153.914 Y50.287 E0.01681 ; brim
G1 X154.445 Y50.528 E0.01829 ; brim
G1 X155.222 Y51.221 E0.03263 ; brim
G1 X155.616 Y51.841 E0.02306 ; brim
G1 X155.828 Y52.613 E0.02510 ; brim
G1 X155.828 Y178.394 E3.94376 ; brim
G1 X155.475 Y179.445 E0.03476 ; brim
G1 X155.225 Y179.775 E0.01301 ; brim
G1 X154.562 Y180.396 E0.02845 ; brim
G1 X154.149 Y180.620 E0.01474 ; brim
G1 X153.387 Y180.828 E0.02477 ; brim
G1 X77.606 Y180.828 E2.37605 ; brim
G1 X76.555 Y180.475 E0.03476 ; brim
G1 X76.225 Y180.225 E0.01301 ; brim
G1 X75.604 Y179.562 E0.02845 ; brim
G1 X75.380 Y179.149 E0.01474 ; brim
G1 X75.172 Y178.387 E0.02477 ; brim
G1 X75.172 Y52.606 E3.94376 ; brim
G1 X75.506 Y51.612 E0.03288 ; brim
G1 X75.845 Y51.757 F9000.000 ; move to first brim point
G1 F1200.000
G1 X76.047 Y51.486 E0.01059 ; brim
G1 X76.643 Y50.922 E0.02573 ; brim
G1 X76.976 Y50.737 E0.01196 ; brim
G1 X77.640 Y50.549 E0.02163 ; brim
G1 X153.368 Y50.553 E2.37440 ; brim
G1 X153.811 Y50.650 E0.01424 ; brim
G1 X154.259 Y50.858 E0.01548 ; brim
G1 X154.950 Y51.483 E0.02920 ; brim
G1 X155.262 Y51.971 E0.01818 ; brim
G1 X155.451 Y52.640 E0.02179 ; brim
G1 X155.451 Y178.363 E3.94196 ; brim
G1 X155.155 Y179.243 E0.02912 ; brim
G1 X154.953 Y179.514 E0.01059 ; brim
G1 X154.357 Y180.078 E0.02573 ; brim
G1 X154.024 Y180.263 E0.01196 ; brim
G1 X153.360 Y180.451 E0.02162 ; brim
G1 X77.637 Y180.451 E2.37424 ; brim
G1 X76.757 Y180.155 E0.02912 ; brim
G1 X76.486 Y179.953 E0.01059 ; brim
G1 X75.922 Y179.357 E0.02573 ; brim
G1 X75.737 Y179.024 E0.01196 ; brim
G1 X75.549 Y178.360 E0.02162 ; brim
G1 X75.549 Y52.637 E3.94196 ; brim
G1 X75.826 Y51.814 E0.02724 ; brim
G1 X75.926 Y52.668 F9000.000 ; move to first brim point
G1 F1200.000
G1 X76.166 Y51.956 E0.02355 ; brim
G1 X76.321 Y51.746 E0.00819 ; brim
G1 X76.851 Y51.237 E0.02305 ; brim
G1 X77.106 Y51.091 E0.00919 ; brim
G1 X77.668 Y50.926 E0.01838 ; brim
G1 X153.346 Y50.930 E2.37282 ; brim
G1 X153.705 Y51.013 E0.01157 ; brim
G1 X154.071 Y51.185 E0.01268 ; brim
G1 X154.676 Y51.743 E0.02580 ; brim
G1 X154.908 Y52.105 E0.01347 ; brim
G1 X155.074 Y52.668 E0.01841 ; brim
G1 X155.074 Y178.332 E3.94011 ; brim
G1 X154.834 Y179.044 E0.02355 ; brim
G1 X154.679 Y179.254 E0.00819 ; brim
G1 X154.149 Y179.763 E0.02305 ; brim
G1 X153.894 Y179.909 E0.00919 ; brim
G1 X153.332 Y180.074 E0.01838 ; brim
G1 X77.668 Y180.074 E2.37240 ; brim
G1 X76.956 Y179.834 E0.02355 ; brim
G1 X76.746 Y179.679 E0.00819 ; brim
G1 X76.237 Y179.149 E0.02305 ; brim
G1 X76.091 Y178.894 E0.00919 ; brim
G1 X75.926 Y178.332 E0.01838 ; brim
G1 X75.926 Y52.728 E3.93823 ; brim
G1 X76.488 Y52.154 F9000.000 ; move to first brim point
G1 F1200.000
G1 X76.597 Y52.004 E0.00580 ; brim
G1 X77.064 Y51.549 E0.02044 ; brim
G1 X77.241 Y51.444 E0.00643 ; brim
G1 X77.698 Y51.303 E0.01500 ; brim
G1 X153.324 Y51.307 E2.37121 ; brim
G1 X153.562 Y51.362 E0.00767 ; brim
G1 X153.882 Y51.513 E0.01109 ; brim
G1 X154.401 Y52.001 E0.02233 ; brim
G1 X154.556 Y52.242 E0.00898 ; brim
G1 X154.697 Y52.698 E0.01495 ; brim
G1 X154.697 Y178.301 E3.93821 ; brim
G1 X154.512 Y178.846 E0.01806 ; brim
G1 X154.403 Y178.996 E0.00580 ; brim
G1 X153.936 Y179.451 E0.02044 ; brim
G1 X153.759 Y179.556 E0.00643 ; brim
G1 X153.302 Y179.697 E0.01500 ; brim
G1 X77.699 Y179.697 E2.37049 ; brim
G1 X77.154 Y179.512 E0.01806 ; brim
G1 X77.004 Y179.403 E0.00580 ; brim
G1 X76.549 Y178.936 E0.02044 ; brim
G1 X76.444 Y178.759 E0.00643 ; brim
G1 X76.303 Y178.302 E0.01500 ; brim
G1 X76.303 Y52.699 E3.93821 ; brim
G1 X76.469 Y52.210 E0.01618 ; brim
G1 X76.812 Y52.348 F9000.000 ; move to first brim point
G1 F1200.000
G1 X76.875 Y52.259 E0.00343 ; brim
G1 X77.282 Y51.856 E0.01795 ; brim
G1 X77.383 Y51.794 E0.00371 ; brim
G1 X77.729 Y51.680 E0.01144 ; brim
G1 X153.302 Y51.684 E2.36952 ; brim
G1 X153.419 Y51.711 E0.00377 ; brim
G1 X153.692 Y51.840 E0.00947 ; brim
G1 X154.123 Y52.257 E0.01880 ; brim
G1 X154.207 Y52.385 E0.00479 ; brim
G1 X154.320 Y52.729 E0.01136 ; brim
G1 X154.320 Y178.269 E3.93622 ; brim
G1 X154.188 Y178.652 E0.01270 ; brim
G1 X154.125 Y178.741 E0.00343 ; brim
G1 X153.718 Y179.144 E0.01795 ; brim
G1 X153.617 Y179.206 E0.00371 ; brim
G1 X153.271 Y179.320 E0.01144 ; brim
G1 X77.731 Y179.320 E2.36850 ; brim
G1 X77.348 Y179.188 E0.01270 ; brim
G1 X77.259 Y179.125 E0.00343 ; brim
G1 X76.856 Y178.718 E0.01795 ; brim
G1 X76.794 Y178.617 E0.00371 ; brim
G1 X76.680 Y178.271 E0.01144 ; brim
G1 X76.680 Y52.731 E3.93622 ; brim
G1 X76.793 Y52.405 E0.01081 ; brim
G1 X77.139 Y52.537 F9000.000 ; move to first brim point
G1 F1200.000
G1 X77.510 Y52.157 E0.01666 ; brim
G1 X77.764 Y52.057 E0.00856 ; brim
G1 X153.250 Y52.057 E2.36679 ; brim
G1 X153.500 Y52.167 E0.00856 ; brim
G1 X153.861 Y52.537 E0.01622 ; brim
G1 X153.943 Y52.764 E0.00757 ; brim
G1 X153.943 Y178.236 E3.93406 ; brim
G1 X153.843 Y178.490 E0.00856 ; brim
G1 X153.463 Y178.861 E0.01666 ; brim
G1 X153.236 Y178.943 E0.00757 ; brim
G1 X77.764 Y178.943 E2.36635 ; brim
G1 X77.510 Y178.843 E0.00856 ; brim
G1 X77.139 Y178.463 E0.01666 ; brim
G1 X77.057 Y178.236 E0.00757 ; brim
G1 X77.057 Y52.764 E3.93406 ; brim
G1 X77.119 Y52.594 E0.00569 ; brim
G1 X77.463 Y52.737 F9000.000 ; move to first brim point
G1 F1200.000
G1 X77.737 Y52.463 E0.01215 ; brim
G1 X77.806 Y52.434 E0.00235 ; brim
G1 X153.194 Y52.434 E2.36372 ; brim
G1 X153.263 Y52.463 E0.00235 ; brim
G1 X153.537 Y52.737 E0.01215 ; brim
G1 X153.566 Y52.806 E0.00235 ; brim
G1 X153.566 Y178.194 E3.93143 ; brim
G1 X153.537 Y178.263 E0.00235 ; brim
G1 X153.263 Y178.537 E0.01215 ; brim
G1 X153.194 Y178.566 E0.00235 ; brim
G1 X77.806 Y178.566 E2.36372 ; brim
G1 X77.737 Y178.537 E0.00235 ; brim
G1 X77.463 Y178.263 E0.01215 ; brim
G1 X77.434 Y178.194 E0.00235 ; brim
G1 X77.440 Y52.792 E3.93187 ; brim
G1 X77.811 Y52.922 F9000.000 ; move to first brim point
G1 F1200.000
