; generated by PrusaSlicer 2.3.1 on 2021-05-29 at 20:13:58 UTC

; 

; external perimeters extrusion width = 0.45mm
; perimeters extrusion width = 0.45mm
; infill extrusion width = 0.45mm
; solid infill extrusion width = 0.45mm
; top infill extrusion width = 0.40mm
; support material extrusion width = 0.38mm
; first layer extrusion width = 0.42mm

M201 X500 Y500 Z100 E5000 ; sets maximum accelerations, mm/sec^2
M203 X500 Y500 Z10 E60 ; sets maximum feedrates, mm/sec
M204 P500 R1000 T500 ; sets acceleration (P, T) and retract acceleration (R), mm/sec^2
M205 X8.00 Y8.00 Z0.40 E5.00 ; sets the jerk limits, mm/sec
M205 S0 T0 ; sets the minimum extruding and travel feed rate, mm/sec
M107 ; disable fan
;TYPE:Custom
G90 ; use absolute coordinates
M83 ; extruder relative mode
M104 S120 ; set temporary nozzle temp to prevent oozing during homing and auto bed leveling
M140 S72 ; set final bed temp
G4 S10 ; allow partial nozzle warmup
G28 ; home all axis
G29 ; auto bed levelling
G1 Z50 F240
G1 X2 Y10 F3000
M104 S210 ; set final nozzle temp
M190 S72 ; wait for bed temp to stabilize
M109 S210 ; wait for nozzle temp to stabilize
G1 Z0.28 F240
G92 E0
G1 Y140 E10 F1500 ; prime the nozzle
G1 X2.3 F5000
G92 E0
G1 Y10 E10 F1200 ; prime the nozzle
G92 E0
G21 ; set units to millimeters
G90 ; use absolute coordinates
M83 ; use relative distances for extrusion
; Filament gcode
;LAYER_CHANGE
;Z:0.2
;HEIGHT:0.2
;BEFORE_LAYER_CHANGE
G92 E0
;0.2


G1 E-5.00000 F3600.000 ; retract
G1 Z0.200 F9000.000 ; move to next layer (0)
;AFTER_LAYER_CHANGE
;0.2
G1 X48.102 Y48.349 ; move to first skirt point
G1 E5.00000 F2400.000 ; unretract
M204 S500 ; adjust acceleration
;TYPE:Skirt
;WIDTH:0.42
G1 F1200.000
G1 X49.117 Y47.474 E0.04201 ; skirt
G1 X50.284 Y46.816 E0.04201 ; skirt
G1 X51.558 Y46.402 E0.04201 ; skirt
G1 X52.888 Y46.247 E0.04201 ; skirt
G1 X178.006 Y46.246 E3.92299 ; skirt
G1 X179.295 Y46.371 E0.04060 ; skirt
G1 X180.537 Y46.740 E0.04060 ; skirt
G1 X181.679 Y47.336 E0.04040 ; skirt
G1 X182.693 Y48.142 E0.04060 ; skirt
G1 X183.530 Y49.122 E0.04040 ; skirt
G1 X184.168 Y50.248 E0.04060 ; skirt
G1 X184.580 Y51.476 E0.04060 ; skirt
G1 X184.750 Y52.760 E0.04060 ; skirt
G1 X184.753 Y178.096 E3.92983 ; skirt
G1 X184.619 Y179.346 E0.03940 ; skirt
G1 X184.255 Y180.548 E0.03940 ; skirt
G1 X183.675 Y181.663 E0.03940 ; skirt
G1 X182.898 Y182.651 E0.03940 ; skirt
G1 X181.862 Y183.541 E0.04281 ; skirt
G1 X180.669 Y184.204 E0.04281 ; skirt
G1 X179.367 Y184.614 E0.04281 ; skirt
G1 X178.009 Y184.754 E0.04281 ; skirt
G1 X52.904 Y184.753 E3.92259 ; skirt
G1 X51.654 Y184.619 E0.03940 ; skirt
G1 X50.452 Y184.255 E0.03940 ; skirt
G1 X49.337 Y183.675 E0.03940 ; skirt
G1 X48.349 Y182.898 E0.03940 ; skirt
G1 X47.459 Y181.862 E0.04281 ; skirt
G1 X46.796 Y180.669 E0.04281 ; skirt
G1 X46.386 Y179.367 E0.04281 ; skirt
G1 X46.246 Y178.009 E0.04281 ; skirt
G1 X46.247 Y52.904 E3.92259 ; skirt
G1 X46.381 Y51.654 E0.03940 ; skirt
G1 X46.745 Y50.452 E0.03940 ; skirt
G1 X47.325 Y49.337 E0.03940 ; skirt
G1 X48.065 Y48.396 E0.03752 ; skirt
G1 X48.360 Y48.629 F9000.000 ; move to first skirt point
G1 F1200.000
G1 X49.336 Y47.781 E0.04053 ; skirt
G1 X50.438 Y47.160 E0.03964 ; skirt
G1 X51.640 Y46.770 E0.03964 ; skirt
G1 X52.903 Y46.624 E0.03984 ; skirt
G1 X178.006 Y46.623 E3.92254 ; skirt
G1 X179.221 Y46.741 E0.03828 ; skirt
G1 X180.392 Y47.088 E0.03828 ; skirt
G1 X181.480 Y47.656 E0.03848 ; skirt
G1 X182.435 Y48.417 E0.03828 ; skirt
G1 X183.227 Y49.346 E0.03828 ; skirt
G1 X183.827 Y50.409 E0.03828 ; skirt
G1 X184.215 Y51.573 E0.03848 ; skirt
G1 X184.373 Y52.784 E0.03828 ; skirt
G1 X184.376 Y178.087 E3.92880 ; skirt
G1 X184.249 Y179.270 E0.03731 ; skirt
G1 X183.904 Y180.409 E0.03731 ; skirt
G1 X183.358 Y181.459 E0.03711 ; skirt
G1 X182.622 Y182.394 E0.03731 ; skirt
G1 X181.643 Y183.234 E0.04042 ; skirt
G1 X180.516 Y183.860 E0.04042 ; skirt
G1 X179.292 Y184.245 E0.04023 ; skirt
G1 X178.010 Y184.377 E0.04042 ; skirt
G1 X52.913 Y184.376 E3.92234 ; skirt
G1 X51.730 Y184.249 E0.03731 ; skirt
G1 X50.591 Y183.904 E0.03731 ; skirt
G1 X49.541 Y183.358 E0.03711 ; skirt
G1 X48.606 Y182.622 E0.03731 ; skirt
G1 X47.766 Y181.643 E0.04042 ; skirt
G1 X47.140 Y180.516 E0.04042 ; skirt
G1 X46.755 Y179.292 E0.04023 ; skirt
G1 X46.623 Y178.010 E0.04042 ; skirt
G1 X46.624 Y52.913 E3.92234 ; skirt
G1 X46.751 Y51.730 E0.03731 ; skirt
G1 X47.096 Y50.591 E0.03731 ; skirt
G1 X47.642 Y49.541 E0.03711 ; skirt
G1 X48.323 Y48.676 E0.03452 ; skirt
G1 E-3.50000 F3600.000 ; retract
;WIPE_START
G1 F7200.000
G1 X49.336 Y47.781 E-0.64210 ; wipe and retract
G1 X50.438 Y47.160 E-0.60059 ; wipe and retract
G1 X50.803 Y47.042 E-0.18232 ; wipe and retract
;WIPE_END
G1 E-0.07500 F3600.000 ; retract
G1 X50.540 Y48.929 F9000.000 ; move to first brim point
G1 E5.00000 F2400.000 ; unretract
G1 F1200.000
G1 X52.453 Y48.287 E0.06330 ; brim
G1 X178.486 Y48.290 E3.95167 ; brim
G1 X179.435 Y48.474 E0.03029 ; brim
G1 X180.343 Y48.865 E0.03101 ; brim
G1 X181.562 Y49.888 E0.04990 ; brim
G1 X182.353 Y51.106 E0.04551 ; brim
G1 X182.713 Y52.489 E0.04481 ; brim
G1 X182.713 Y178.510 E3.95131 ; brim
G1 X182.382 Y179.827 E0.04257 ; brim
G1 X181.655 Y181.011 E0.04355 ; brim
G1 X181.051 Y181.615 E0.02678 ; brim
G1 X180.460 Y182.071 E0.02340 ; brim
G1 X178.547 Y182.713 E0.06330 ; brim
G1 X52.490 Y182.713 E3.95241 ; brim
G1 X51.173 Y182.382 E0.04257 ; brim
G1 X49.989 Y181.655 E0.04355 ; brim
G1 X49.385 Y181.051 E0.02678 ; brim
G1 X48.929 Y180.460 E0.02340 ; brim
G1 X48.287 Y178.547 E0.06330 ; brim
G1 X48.287 Y52.490 E3.95241 ; brim
G1 X48.618 Y51.173 E0.04257 ; brim
G1 X49.345 Y49.989 E0.04355 ; brim
G1 X49.949 Y49.385 E0.02678 ; brim
G1 X50.492 Y48.966 E0.02152 ; brim
G1 X50.722 Y49.265 F9000.000 ; move to first brim point
G1 F1200.000
G1 X52.484 Y48.664 E0.05838 ; brim
G1 X178.467 Y48.667 E3.95012 ; brim
G1 X179.341 Y48.840 E0.02792 ; brim
G1 X180.166 Y49.199 E0.02823 ; brim
G1 X181.297 Y50.158 E0.04647 ; brim
G1 X181.996 Y51.232 E0.04018 ; brim
G1 X182.336 Y52.513 E0.04157 ; brim
G1 X182.336 Y178.486 E3.94977 ; brim
G1 X182.024 Y179.705 E0.03946 ; brim
G1 X181.373 Y180.759 E0.03885 ; brim
G1 X180.794 Y181.339 E0.02571 ; brim
G1 X180.256 Y181.752 E0.02127 ; brim
G1 X178.516 Y182.336 E0.05754 ; brim
G1 X52.514 Y182.336 E3.95070 ; brim
G1 X51.295 Y182.024 E0.03946 ; brim
G1 X50.241 Y181.373 E0.03885 ; brim
G1 X49.661 Y180.794 E0.02571 ; brim
G1 X49.248 Y180.256 E0.02127 ; brim
G1 X48.664 Y178.516 E0.05754 ; brim
G1 X48.664 Y52.514 E3.95070 ; brim
G1 X48.976 Y51.295 E0.03946 ; brim
G1 X49.627 Y50.241 E0.03885 ; brim
G1 X50.206 Y49.661 E0.02571 ; brim
G1 X50.674 Y49.302 E0.01849 ; brim
G1 X50.903 Y49.601 F9000.000 ; move to first brim point
G1 F1200.000
G1 X50.948 Y49.566 E0.00179 ; brim
G1 X52.515 Y49.041 E0.05179 ; brim
G1 X178.448 Y49.044 E3.94856 ; brim
G1 X179.246 Y49.205 E0.02550 ; brim
G1 X179.988 Y49.533 E0.02545 ; brim
G1 X181.030 Y50.426 E0.04302 ; brim
G1 X181.663 Y51.410 E0.03669 ; brim
G1 X181.959 Y52.538 E0.03655 ; brim
G1 X181.959 Y178.462 E3.94829 ; brim
G1 X181.687 Y179.533 E0.03463 ; brim
G1 X181.091 Y180.509 E0.03586 ; brim
G1 X180.536 Y181.063 E0.02460 ; brim
G1 X180.052 Y181.434 E0.01912 ; brim
G1 X178.485 Y181.959 E0.05179 ; brim
G1 X52.538 Y181.959 E3.94901 ; brim
G1 X51.467 Y181.687 E0.03463 ; brim
G1 X50.491 Y181.091 E0.03586 ; brim
G1 X49.937 Y180.536 E0.02460 ; brim
G1 X49.566 Y180.052 E0.01912 ; brim
G1 X49.041 Y178.485 E0.05179 ; brim
G1 X49.041 Y52.538 E3.94901 ; brim
G1 X49.313 Y51.467 E0.03463 ; brim
G1 X49.909 Y50.491 E0.03586 ; brim
G1 X50.464 Y49.937 E0.02460 ; brim
G1 X50.855 Y49.637 E0.01544 ; brim
G1 X51.152 Y49.885 F9000.000 ; move to first brim point
G1 F1200.000
G1 X52.545 Y49.418 E0.04607 ; brim
G1 X178.429 Y49.421 E3.94699 ; brim
G1 X179.148 Y49.570 E0.02304 ; brim
G1 X179.808 Y49.865 E0.02266 ; brim
G1 X180.762 Y50.692 E0.03960 ; brim
G1 X181.306 Y51.537 E0.03149 ; brim
G1 X181.582 Y52.563 E0.03331 ; brim
G1 X181.582 Y178.438 E3.94673 ; brim
G1 X181.329 Y179.410 E0.03149 ; brim
G1 X180.808 Y180.258 E0.03119 ; brim
G1 X180.278 Y180.788 E0.02350 ; brim
G1 X179.848 Y181.115 E0.01695 ; brim
G1 X178.455 Y181.582 E0.04607 ; brim
G1 X52.562 Y181.582 E3.94728 ; brim
G1 X51.590 Y181.329 E0.03149 ; brim
G1 X50.742 Y180.808 E0.03119 ; brim
G1 X50.212 Y180.278 E0.02350 ; brim
G1 X49.885 Y179.848 E0.01695 ; brim
G1 X49.418 Y178.455 E0.04607 ; brim
G1 X49.418 Y52.562 E3.94728 ; brim
G1 X49.671 Y51.590 E0.03149 ; brim
G1 X50.191 Y50.742 E0.03119 ; brim
G1 X50.722 Y50.212 E0.02350 ; brim
G1 X51.104 Y49.921 E0.01507 ; brim
G1 X51.331 Y50.222 F9000.000 ; move to first brim point
G1 F1200.000
G1 X52.576 Y49.795 E0.04125 ; brim
G1 X178.410 Y49.798 E3.94543 ; brim
G1 X179.013 Y49.923 E0.01933 ; brim
G1 X179.628 Y50.197 E0.02110 ; brim
G1 X180.492 Y50.957 E0.03609 ; brim
G1 X180.972 Y51.714 E0.02809 ; brim
G1 X181.205 Y52.587 E0.02835 ; brim
G1 X181.205 Y178.413 E3.94517 ; brim
G1 X180.973 Y179.285 E0.02831 ; brim
G1 X180.527 Y180.006 E0.02658 ; brim
G1 X180.021 Y180.512 E0.02241 ; brim
G1 X179.645 Y180.796 E0.01477 ; brim
G1 X178.424 Y181.205 E0.04038 ; brim
G1 X52.587 Y181.205 E3.94553 ; brim
G1 X51.715 Y180.973 E0.02831 ; brim
G1 X50.994 Y180.527 E0.02658 ; brim
G1 X50.488 Y180.021 E0.02241 ; brim
G1 X50.204 Y179.645 E0.01477 ; brim
G1 X49.795 Y178.424 E0.04038 ; brim
G1 X49.795 Y52.587 E3.94553 ; brim
G1 X50.027 Y51.715 E0.02831 ; brim
G1 X50.473 Y50.994 E0.02658 ; brim
G1 X50.979 Y50.488 E0.02241 ; brim
G1 X51.283 Y50.258 E0.01198 ; brim
G1 X52.606 Y50.172 F9000.000 ; move to first brim point
G1 F1200.000
G1 X178.389 Y50.176 E3.94383 ; brim
G1 X178.914 Y50.287 E0.01682 ; brim
G1 X179.445 Y50.528 E0.01829 ; brim
G1 X180.222 Y51.221 E0.03263 ; brim
G1 X180.616 Y51.841 E0.02306 ; brim
G1 X180.828 Y52.613 E0.02510 ; brim
G1 X180.828 Y178.387 E3.94354 ; brim
G1 X180.617 Y179.158 E0.02508 ; brim
G1 X180.245 Y179.755 E0.02203 ; brim
G1 X179.764 Y180.235 E0.02132 ; brim
G1 X179.444 Y180.476 E0.01257 ; brim
G1 X178.394 Y180.828 E0.03472 ; brim
G1 X52.613 Y180.828 E3.94376 ; brim
G1 X51.842 Y180.617 E0.02508 ; brim
G1 X51.245 Y180.245 E0.02203 ; brim
G1 X50.765 Y179.764 E0.02132 ; brim
G1 X50.524 Y179.444 E0.01257 ; brim
G1 X50.172 Y178.394 E0.03472 ; brim
G1 X50.172 Y52.613 E3.94376 ; brim
G1 X50.383 Y51.842 E0.02508 ; brim
G1 X50.755 Y51.245 E0.02203 ; brim
G1 X51.236 Y50.765 E0.02132 ; brim
G1 X51.556 Y50.524 E0.01257 ; brim
G1 X52.549 Y50.191 E0.03284 ; brim
G1 X52.637 Y50.549 F9000.000 ; move to first brim point
G1 F1200.000
G1 X178.368 Y50.553 E3.94221 ; brim
G1 X178.811 Y50.650 E0.01424 ; brim
G1 X179.259 Y50.858 E0.01548 ; brim
G1 X179.950 Y51.483 E0.02920 ; brim
G1 X180.262 Y51.971 E0.01818 ; brim
G1 X180.451 Y52.640 E0.02179 ; brim
G1 X180.451 Y178.360 E3.94186 ; brim
G1 X180.262 Y179.029 E0.02179 ; brim
G1 X179.964 Y179.503 E0.01755 ; brim
G1 X179.508 Y179.959 E0.02022 ; brim
G1 X179.243 Y180.155 E0.01034 ; brim
G1 X178.363 Y180.451 E0.02911 ; brim
G1 X52.640 Y180.451 E3.94196 ; brim
G1 X51.971 Y180.262 E0.02179 ; brim
G1 X51.497 Y179.964 E0.01755 ; brim
G1 X51.041 Y179.508 E0.02022 ; brim
G1 X50.845 Y179.243 E0.01034 ; brim
G1 X50.549 Y178.363 E0.02911 ; brim
G1 X50.549 Y52.640 E3.94196 ; brim
G1 X50.738 Y51.971 E0.02179 ; brim
G1 X51.036 Y51.497 E0.01755 ; brim
G1 X51.492 Y51.041 E0.02022 ; brim
G1 X51.757 Y50.845 E0.01034 ; brim
G1 X52.580 Y50.568 E0.02723 ; brim
G1 X52.668 Y50.926 F9000.000 ; move to first brim point
G1 F1200.000
G1 X178.346 Y50.930 E3.94054 ; brim
G1 X178.705 Y51.013 E0.01157 ; brim
G1 X179.071 Y51.185 E0.01268 ; brim
G1 X179.676 Y51.743 E0.02580 ; brim
G1 X179.908 Y52.105 E0.01347 ; brim
G1 X180.074 Y52.668 E0.01841 ; brim
G1 X180.074 Y178.332 E3.94010 ; brim
G1 X179.908 Y178.896 E0.01842 ; brim
G1 X179.683 Y179.250 E0.01318 ; brim
G1 X179.252 Y179.681 E0.01911 ; brim
G1 X179.044 Y179.834 E0.00808 ; brim
G1 X178.332 Y180.074 E0.02354 ; brim
G1 X52.668 Y180.074 E3.94011 ; brim
G1 X52.104 Y179.908 E0.01842 ; brim
G1 X51.750 Y179.683 E0.01318 ; brim
G1 X51.319 Y179.252 E0.01911 ; brim
G1 X51.166 Y179.044 E0.00808 ; brim
G1 X50.926 Y178.332 E0.02354 ; brim
G1 X50.926 Y52.668 E3.94011 ; brim
G1 X51.092 Y52.104 E0.01842 ; brim
G1 X51.317 Y51.750 E0.01318 ; brim
G1 X51.748 Y51.319 E0.01911 ; brim
G1 X51.956 Y51.166 E0.00808 ; brim
G1 X52.611 Y50.945 E0.02166 ; brim
G1 X52.154 Y51.488 F9000.000 ; move to first brim point
G1 F1200.000
G1 X52.699 Y51.303 E0.01806 ; brim
G1 X178.324 Y51.307 E3.93888 ; brim
G1 X178.562 Y51.362 E0.00767 ; brim
G1 X178.882 Y51.513 E0.01109 ; brim
G1 X179.401 Y52.001 E0.02233 ; brim
G1 X179.556 Y52.242 E0.00898 ; brim
G1 X179.697 Y52.698 E0.01495 ; brim
G1 X179.697 Y178.302 E3.93825 ; brim
G1 X179.556 Y178.758 E0.01496 ; brim
G1 X179.402 Y178.998 E0.00892 ; brim
G1 X178.996 Y179.404 E0.01800 ; brim
G1 X178.846 Y179.512 E0.00579 ; brim
G1 X178.301 Y179.697 E0.01806 ; brim
G1 X52.698 Y179.697 E3.93821 ; brim
G1 X52.242 Y179.556 E0.01496 ; brim
G1 X52.002 Y179.402 E0.00892 ; brim
G1 X51.596 Y178.996 E0.01800 ; brim
G1 X51.488 Y178.846 E0.00579 ; brim
G1 X51.303 Y178.301 E0.01806 ; brim
G1 X51.303 Y52.698 E3.93821 ; brim
G1 X51.444 Y52.242 E0.01496 ; brim
G1 X51.598 Y52.002 E0.00892 ; brim
G1 X52.004 Y51.596 E0.01800 ; brim
G1 X52.105 Y51.524 E0.00391 ; brim
G1 X52.348 Y51.812 F9000.000 ; move to first brim point
G1 F1200.000
G1 X52.731 Y51.680 E0.01270 ; brim
G1 X178.302 Y51.684 E3.93719 ; brim
G1 X178.419 Y51.711 E0.00377 ; brim
G1 X178.692 Y51.840 E0.00947 ; brim
G1 X179.123 Y52.257 E0.01880 ; brim
G1 X179.207 Y52.385 E0.00479 ; brim
G1 X179.320 Y52.729 E0.01136 ; brim
G1 X179.320 Y178.271 E3.93626 ; brim
G1 X179.207 Y178.615 E0.01136 ; brim
G1 X179.122 Y178.744 E0.00484 ; brim
G1 X178.742 Y179.125 E0.01686 ; brim
G1 X178.652 Y179.188 E0.00345 ; brim
G1 X178.269 Y179.320 E0.01270 ; brim
G1 X52.729 Y179.320 E3.93622 ; brim
G1 X52.385 Y179.207 E0.01136 ; brim
G1 X52.256 Y179.122 E0.00484 ; brim
G1 X51.875 Y178.742 E0.01686 ; brim
G1 X51.812 Y178.652 E0.00345 ; brim
G1 X51.680 Y178.269 E0.01270 ; brim
G1 X51.680 Y52.729 E3.93622 ; brim
G1 X51.793 Y52.385 E0.01136 ; brim
G1 X51.878 Y52.256 E0.00484 ; brim
G1 X52.299 Y51.847 E0.01841 ; brim
G1 X52.537 Y52.139 F9000.000 ; move to first brim point
G1 F1200.000
G1 X52.764 Y52.057 E0.00757 ; brim
G1 X178.250 Y52.057 E3.93451 ; brim
G1 X178.500 Y52.167 E0.00856 ; brim
G1 X178.843 Y52.510 E0.01522 ; brim
G1 X178.943 Y52.764 E0.00856 ; brim
G1 X178.943 Y178.236 E3.93406 ; brim
G1 X178.843 Y178.490 E0.00856 ; brim
G1 X178.490 Y178.843 E0.01566 ; brim
G1 X178.236 Y178.943 E0.00856 ; brim
G1 X52.764 Y178.943 E3.93406 ; brim
G1 X52.510 Y178.843 E0.00856 ; brim
G1 X52.157 Y178.490 E0.01566 ; brim
G1 X52.057 Y178.236 E0.00856 ; brim
G1 X52.057 Y52.764 E3.93406 ; brim
G1 X52.157 Y52.510 E0.00856 ; brim
G1 X52.491 Y52.176 E0.01480 ; brim
G1 X52.737 Y52.463 F9000.000 ; move to first brim point
G1 F1200.000
G1 X52.806 Y52.434 E0.00235 ; brim
G1 X178.194 Y52.434 E3.93143 ; brim
G1 X178.263 Y52.463 E0.00235 ; brim
G1 X178.537 Y52.737 E0.01215 ; brim
G1 X178.566 Y52.806 E0.00235 ; brim
G1 X178.566 Y178.194 E3.93143 ; brim
G1 X178.537 Y178.263 E0.00235 ; brim
G1 X178.263 Y178.537 E0.01215 ; brim
G1 X178.194 Y178.566 E0.00235 ; brim
G1 X52.806 Y178.566 E3.93143 ; brim
G1 X52.737 Y178.537 E0.00235 ; brim
G1 X52.463 Y178.263 E0.01215 ; brim
G1 X52.434 Y178.194 E0.00235 ; brim
G1 X52.434 Y52.806 E3.93143 ; brim
G1 X52.463 Y52.737 E0.00235 ; brim
G1 X52.695 Y52.506 E0.01027 ; brim
G1 X52.922 Y52.811 F9000.000 ; move to first brim point
G1 F1200.000
G1 X178.078 Y52.811 E3.92418 ; brim
G1 X178.189 Y52.922 E0.00490 ; brim
G1 X178.189 Y178.078 E3.92418 ; brim
G1 X178.078 Y178.189 E0.00490 ; brim
G1 X52.922 Y178.189 E3.92418 ; brim
G1 X52.811 Y178.078 E0.00490 ; brim
G1 X52.811 Y52.922 E3.92418 ; brim
G1 X52.879 Y52.854 E0.00302 ; brim
; printing object OctoCase.stl id:0 copy 0
G1 X53.310 Y53.310 F9000.000 ; move to first perimeter point
;TYPE:External perimeter
G1 F1200.000
G1 X177.690 Y53.310 E3.89985 ; perimeter
G1 X177.690 Y177.690 E3.89985 ; perimeter
G1 X53.310 Y177.690 E3.89985 ; perimeter
G1 X53.310 Y53.370 E3.89797 ; perimeter
